Numix/16/status/indicator-keyboard-Fi-4.svg

<?xml version="1.0" encoding="UTF-8" standalone="no"?>
<svg
   xmlns:dc="http://purl.org/dc/elements/1.1/"
   xmlns:cc="http://creativecommons.org/ns#"
   xmlns:rdf="http://www.w3.org/1999/02/22-rdf-syntax-ns#"
   xmlns:svg="http://www.w3.org/2000/svg"
   xmlns="http://www.w3.org/2000/svg"
   xmlns:sodipodi="http://sodipodi.sourceforge.net/DTD/sodipodi-0.dtd"
   xmlns:inkscape="http://www.inkscape.org/namespaces/inkscape"
   viewBox="0 0 16 16"
   id="svg2"
   version="1.1"
   inkscape:version="0.91 r13725"
   sodipodi:docname="indicator-keyboard-Fi-4.svg">
  <metadata
     id="metadata14">
    <rdf:RDF>
      <cc:Work
         rdf:about="">
        <dc:format>image/svg+xml</dc:format>
        <dc:type
           rdf:resource="http://purl.org/dc/dcmitype/StillImage" />
      </cc:Work>
    </rdf:RDF>
  </metadata>
  <defs
     id="defs12" />
  <sodipodi:namedview
     pagecolor="#ffffff"
     bordercolor="#666666"
     borderopacity="1"
     objecttolerance="10"
     gridtolerance="10"
     guidetolerance="10"
     inkscape:pageopacity="0"
     inkscape:pageshadow="2"
     inkscape:window-width="640"
     inkscape:window-height="480"
     id="namedview10"
     showgrid="false"
     inkscape:zoom="14.75"
     inkscape:cx="8"
     inkscape:cy="8"
     inkscape:window-x="65"
     inkscape:window-y="24"
     inkscape:window-maximized="0"
     inkscape:current-layer="svg2" />
  <path
     style="fill:#ececec;fill-opacity:1"
     d="M 1.5996094 0 C 0.71320937 2.9605947e-16 0 0.71320937 0 1.5996094 L 0 14.400391 C 2.9605947e-16 15.286791 0.71320937 16 1.5996094 16 L 14.400391 16 C 15.286791 16 16 15.286791 16 14.400391 L 16 1.5996094 C 16 0.71320937 15.286791 0 14.400391 0 L 1.5996094 0 z M 8.4277344 4.5898438 C 8.5477344 4.5898438 8.650375 4.6308437 8.734375 4.7148438 C 8.818375 4.7928438 8.859375 4.9010625 8.859375 5.0390625 C 8.859375 5.1770625 8.818375 5.2870938 8.734375 5.3710938 C 8.650375 5.4490937 8.5477344 5.4882812 8.4277344 5.4882812 C 8.3077344 5.4882812 8.2050937 5.4490938 8.1210938 5.3710938 C 8.0370938 5.2870937 7.9960937 5.1770625 7.9960938 5.0390625 C 7.9960938 4.9010625 8.0370938 4.7928437 8.1210938 4.7148438 C 8.2050937 4.6308438 8.3077344 4.5898438 8.4277344 4.5898438 z M 3.5 4.859375 L 7.0546875 4.859375 L 7.0546875 5.390625 L 4.1113281 5.390625 L 4.1113281 7.5859375 L 6.7226562 7.5859375 L 6.7226562 8.1171875 L 4.1113281 8.1171875 L 4.1113281 11.095703 L 3.5 11.095703 L 3.5 4.859375 z M 8.140625 6.4433594 L 8.7246094 6.4433594 L 8.7246094 11.095703 L 8.140625 11.095703 L 8.140625 6.4433594 z M 11.599609 8.8417969 L 11.996094 8.8417969 L 11.996094 11.486328 L 12.5 11.486328 L 12.5 11.796875 L 11.996094 11.796875 L 11.996094 12.896484 L 11.623047 12.896484 L 11.623047 11.796875 L 9.7851562 11.796875 L 9.7851562 11.5625 C 9.8553563 11.3753 9.9533251 11.163688 10.078125 10.929688 C 10.206825 10.695688 10.351819 10.456637 10.511719 10.210938 C 10.671619 9.9652374 10.84405 9.7261874 11.03125 9.4921875 C 11.21845 9.2542875 11.408509 9.0367969 11.599609 8.8417969 z M 11.623047 9.2695312 C 11.486547 9.4099313 11.347431 9.5706063 11.207031 9.7539062 C 11.066631 9.9372063 10.931434 10.129225 10.802734 10.328125 C 10.677934 10.523125 10.562325 10.719069 10.453125 10.917969 C 10.343925 11.116869 10.251834 11.306928 10.177734 11.486328 L 11.623047 11.486328 L 11.623047 9.2695312 z "
     id="path4" />
</svg>

<svg xmlns="http://www.w3.org/2000/svg" viewBox="0 0 16 16">
 <path d="m 1.6 0 c -0.886 0 -1.6 0.713 -1.6 1.6 l 0 12.801 c 0 0.886 0.713 1.6 1.6 1.6 l 12.801 0 c 0.886 0 1.6 -0.713 1.6 -1.6 l 0 -12.801 c 0 -0.886 -0.713 -1.6 -1.6 -1.6 l -12.801 0 z m 6.828 4.59 c 0.12 0 0.223 0.041 0.307 0.125 c 0.084 0.078 0.125 0.186 0.125 0.324 c 0 0.138 -0.041 0.248 -0.125 0.332 c -0.084 0.078 -0.187 0.117 -0.307 0.117 c -0.12 0 -0.223 -0.039 -0.307 -0.117 c -0.084 -0.084 -0.125 -0.194 -0.125 -0.332 c 0 -0.138 0.041 -0.246 0.125 -0.324 c 0.084 -0.084 0.187 -0.125 0.307 -0.125 z m -4.928 0.27 l 3.555 0 l 0 0.531 l -2.943 0 l 0 2.195 l 2.611 0 l 0 0.531 l -2.611 0 l 0 2.979 l -0.611 0 l 0 -6.236 z m 4.641 1.584 l 0.584 0 l 0 4.652 l -0.584 0 l 0 -4.652 z m 3.459 2.398 l 0.396 0 l 0 2.645 l 0.504 0 l 0 0.311 l -0.504 0 l 0 1.1 l -0.373 0 l 0 -1.1 l -1.838 0 l 0 -0.234 c 0.07 -0.187 0.168 -0.399 0.293 -0.633 c 0.129 -0.234 0.274 -0.473 0.434 -0.719 c 0.16 -0.246 0.332 -0.485 0.52 -0.719 c 0.187 -0.238 0.377 -0.455 0.568 -0.65 z m 0.023 0.428 c -0.136 0.14 -0.276 0.301 -0.416 0.484 c -0.14 0.183 -0.276 0.375 -0.404 0.574 c -0.125 0.195 -0.24 0.391 -0.35 0.59 c -0.109 0.199 -0.201 0.389 -0.275 0.568 l 1.445 0 l 0 -2.217 z" style="fill:#ececec;fill-opacity:1"/>
</svg>
